!!!OTL: 93g. Treulieb.
!!!ARE: Europa, Mitteleuropa, Deutschland, Westfalen
!!!SCT: E0093E
!!!TXL: @@DE
!!!YEM: Copyright 1995, estate of Helmut Schaffrath.
**kern	**text
*ICvox	*
*M3/4	*
*k[b-]	*
*F:	*
!LO:TX:a:t=Ruhig.	!
!LO:TX:a:t=Weſtfäliſch (Keſtner's Hdſchr.)	!
{8c	Wach
8c	auf,
8f	wach
=1	=1
4f	auf;
4a	mein
8g	Schatʒ
16gL	al-
16aJ	.
=2	=2
4f	-lein!
8r}	.
{8c	Wach
8f	auf,
8a	wach
=3	=3
4cc	auf,
4a	es
8g	iſt
8f#	ſchon
=4	=4
4g	Ʒeit!
8r}	.
{8g	Jch
8g	hab
16aL	ge-
16b-J	.
=5	=5
4cc	-ſchla-
8c	-fen
8c	die
8f	gan-
8a	-ʒe
=6	=6
(4a	Nacht,
8g);}	.
{8c	daß
8b-	ich
8a	vor
=7	=7
4g	Schlaf
4f	nicht
8c	re-
8e	-den
=8	=8
4f	mag.
8r}	.
==	==
!!!AGN: erzaehlendes Volks - Lied, Sage, Liebe, Leid, Tod, Ballade ?
!!!ONB: ESAC (Essen Associative Code) Database: ERK1
!!!AMT: simple triple
!!!AIN: vox
!!!EED: Helmut Schaffrath
!!!EEV: 1.0
!!!GTL: Liebesgeschichten mit tragischem Schluss
!!!URL-scan: https://rosdok.uni-rostock.de/mcrviewer/recordIdentifier/rosdok_ppn745146120/iview2/phys_0398.iview2?x=-422.27491384562836&y=-322.7802907875739&scale=0.554360769283424&rotation=0&layout=singlePageLayout
!!!ENC: Anna Maria Matuszewska
!!!EEV: 2024/11/28
*-	*-
